src/assets/svg/iconOne.svg

<svg width="144" height="144" viewBox="0 0 144 144" fill="none" xmlns="http://www.w3.org/2000/svg">
<g opacity="0.5">
<path fill-rule="evenodd" clip-rule="evenodd" d="M22.3193 64.7936C53.243 50.162 73.8636 40.5159 84.1812 35.8554C113.64 22.5487 119.761 20.2372 123.751 20.1608C124.629 20.1441 126.591 20.3802 127.862 21.5002C128.935 22.4459 129.23 23.7234 129.371 24.62C129.513 25.5166 129.689 27.5591 129.549 29.155C127.952 47.3708 121.045 91.5759 117.531 111.978C116.044 120.611 113.116 123.505 110.281 123.789C104.121 124.404 99.4434 119.368 93.477 115.12C84.1409 108.474 78.8665 104.336 69.8041 97.8509C59.331 90.3557 66.1203 86.2362 72.0889 79.5038C73.6509 77.7419 100.792 50.9314 101.318 48.4993C101.384 48.1951 101.444 47.0613 100.824 46.4626C100.204 45.8639 99.2886 46.0686 98.628 46.2314C97.6916 46.4623 82.7769 57.1681 53.8839 78.349C49.6504 81.506 45.8159 83.0442 42.3802 82.9636C38.5927 82.8748 31.3071 80.6379 25.891 78.726C19.2479 76.3808 13.9681 75.141 14.4278 71.1582C14.6673 69.0838 17.2978 66.9622 22.3193 64.7936Z" fill="#748BFF"/>
</g>
</svg>

<svg xmlns="http://www.w3.org/2000/svg" width="144" height="144" fill="none"><path fill="#748BFF" fill-rule="evenodd" d="M22.32 64.794C53.242 50.162 73.863 40.516 84.18 35.855c29.459-13.306 35.58-15.618 39.57-15.694.878-.017 2.84.22 4.111 1.34 1.073.945 1.368 2.222 1.509 3.119.142.897.318 2.94.178 4.535-1.597 18.216-8.504 62.42-12.018 82.823-1.487 8.633-4.415 11.527-7.25 11.811-6.16.615-10.838-4.421-16.804-8.669-9.336-6.646-14.61-10.784-23.673-17.27-10.473-7.494-3.684-11.614 2.285-18.346 1.562-1.762 28.703-28.573 29.229-31.005.066-.304.126-1.438-.494-2.036-.62-.6-1.535-.394-2.196-.232-.936.231-15.851 10.937-44.744 32.118-4.234 3.157-8.068 4.695-11.504 4.615-3.787-.09-11.073-2.326-16.489-4.238-6.643-2.345-11.923-3.585-11.463-7.568.24-2.074 2.87-4.196 7.891-6.364Z" clip-rule="evenodd" opacity=".5"/></svg>
